icons/linear-new-arrow-chevron-right-circle.svg

<svg xmlns="http://www.w3.org/2000/svg" width="32px" height="32px" viewBox="0 0 32 32" version="1.1">
    <title>linear-new-arrow-chevron-right-circle</title>
    <g id="linear-new-arrow-chevron-right-circle" stroke-width="1" fill-rule="evenodd">
        <path d="M16,2 C23.7319865,2 30,8.2680135 30,16 C30,23.7319865 23.7319865,30 16,30 C8.2680135,30 2,23.7319865 2,16 C2,8.2680135 8.2680135,2 16,2 Z M16,4 C9.372583,4 4,9.372583 4,16 C4,22.627417 9.372583,28 16,28 C22.627417,28 28,22.627417 28,16 C28,9.372583 22.627417,4 16,4 Z M14.7071068,10.2928932 L19.7071068,15.2928932 C20.0976311,15.6834175 20.0976311,16.3165825 19.7071068,16.7071068 L14.7071068,21.7071068 C14.3165825,22.0976311 13.6834175,22.0976311 13.2928932,21.7071068 C12.9023689,21.3165825 12.9023689,20.6834175 13.2928932,20.2928932 L17.585,16 L13.2928932,11.7071068 C12.9324093,11.3466228 12.9046797,10.7793918 13.2097046,10.3871006 L13.2928932,10.2928932 C13.6834175,9.90236893 14.3165825,9.90236893 14.7071068,10.2928932 Z" id="&#24418;&#29366;" fill-rule="nonzero" />
    </g>
</svg>

<svg xmlns="http://www.w3.org/2000/svg" viewBox="0 0 32 32"><path fill="currentColor" d="M16 2c7.732 0 14 6.268 14 14s-6.268 14-14 14S2 23.732 2 16 8.268 2 16 2m0 2C9.373 4 4 9.373 4 16s5.373 12 12 12 12-5.373 12-12S22.627 4 16 4m-1.293 6.293 5 5a1 1 0 0 1 0 1.414l-5 5a1 1 0 0 1-1.414-1.414L17.585 16l-4.292-4.293a1 1 0 0 1-.083-1.32l.083-.094a1 1 0 0 1 1.414 0"/></svg>
